X:1
T:LA VICTORIA DE LOS ALIADOS
T:LA VICTORIA DE LOS ALIADOS
T:MARCHA MILITAR SOBRE MOTIVOS DE SUS HIMNOS
T: POR 
T:M. VELAZQUEZ.
T:M. V.
T:M. V.
T:M. V.
T:M. V.
Z:M. V.
%%score { ( 1 3 ) | ( 2 4 ) }
L:1/8
Q:1/4=90
M:2/4
K:C
V:1 treble nm="Piano" snm="Pno."
V:3 treble 
V:2 bass 
V:4 bass 
V:1
"^Cornetas." z e/(e/ | g4-) | (3g.e.c (3.g.e.c | G4- | G2 z2 | z!mf! e (3(d/c/B/c/e/) |: %6
 gz/(g/ G2-) | G(3(c/d/c/) BA | z g/g/ gg/g/ | g2 x2 | (3gfd A2- | (3ABd (3cAB | z g/g/ gg/g/ | %13
 g2 x2 | gz/(g/ G2-) | G(3(c/d/c/) BA | d4- | (3dB,D (3GBd |"_cresc." (3gfe d2- | d(3c/d/c/ BA |1 %20
 G[DF^G][DFA][DFB] | z e (3(d/c/B/c/e/) :|2 Gz!ff![Bg] z |!mf! z (G f>)e |:{/f} e>(d A) z | %25
{cd} c>(B F) z |{AB} A>_A G2- | G!p![EG]A[Ec] | [FA]/c/A/F/ D2- | DF G(3[F_A]/B/A/ | %30
 [EG](3c/d/c/ B>A | GG f>e |{/f} e>(d A2) |{cd} c>B!<(! e>d!<)! |{/e} d>c c2- | c(3c/d/c/ BA |1 %36
 G c/d/ e/f/g/a/ | g!p! .[FBe].[FBd].[FBe] | [Ec](G!ff! f>)e :|2!ff! G c/d/ e/f/g/a/ || %40
!8va(! b/c'/d'/e'/ f'/g'/a'/b'/ | c''!8va)!"^Cornetas." .G/.G/ .c.e | g4- | g z z2 | g4 | %45
 [ec'] z!fff! [cegc']>[cegc'] | [cegc'] z!p! C>C ||[K:F] F4- | F z{GA} (3G^FG | c4- | c>A (3FAF | %51
 (D2 B2-) | B2!<(!{GA} G>E!<)! | (!trill(!TF4{EF} |!>(! G)!>)! z C>!p!(C | F4-) | F z{GA} (3G^FG | %57
 c4- | c>A (3FAF | (D2 B2-) | B>(G E>)(C | F4-) | F!mf! ccc || c>B A2- | AB BB | B>A G2- | %66
 GA B/A/G/F/ | A>B c2- | cd/B/ AG | [Cc]4- | [CFAc]c cc | c>B A2- | ABBB | B>A G2- | GA B/A/G/F/ | %75
 A>B c2- | cd/B/ AG | F4- | F z!ff! (3[Ff][Gg][^G^g] || [Aa]>[Aa] [Aa]2- | [Adfa]>g (3(fed | %81
 !>!e>)A (3(fed | !>!e>)A (3(fed | e) z [A^cea]>[Acea] | [A^cea] z (3[Aa][Bb][=B=b] | %85
 [cc']>[cc'] [cc']2- | [cf_ac']>b (3(_agf | !>!g>)c (3(_agf | !>!g>)c (3_agf | g z [cc']>[cc'] | %90
 [cc']4- | [cc'] z [Cc]>[Cc] | [Cc]4- | [Cc][cc'][cc'][cc'] | [cc']!f! ccc | c>B A2- | ABBB | %97
{/c} B>A G2- | GA B/A/G/F/ | A>B c2- | cd/B/ AG | [Cc]4- | [CFAc]c!<(!cc | c>B A2- | Addd | %105
 d>c B2- | Bdef!<)! | [fa]>f c2- | cd/B/ AG | (F4- |!fff! [FAcf]) z z2 |] %111
V:2
 z2 | z4 | z4 | z2 [!courtesy!=G,,!courtesy!=G,] z | [G,,G,]z[G,,G,] z |"^Bateria." E,,4 |: %6
 C,[E,G,C] G,,[E,G,C] | C,[G,C] G,,[E,G,C] | D,[F,G,B,] G,,[F,G,B,] | D,[F,G,B,] G,,[F,G,B,] | %10
 B,,[F,G,D] G,,[F,G,D] | G,2 F,2 | E,2 D,2 | [C,E,G,C] z z2 | C,[E,G,C] G,,[E,G,C] | E,2 _E,2 | %16
x[G,B,]/[G,B,]/ [G,B,][G,B,]/[G,B,]/ | [G,B,]"^M.I." z"^M.D." z2 | D,[G,B,] D,[G,B,] | %19
 D,,[D,A,C] D,,[D,A,C] |1 [G,B,]!>![G,,G,]!>![G,,G,]!>![G,,G,] | E,,4 :|2 [G,B,]z[G,,D,G,] z | %23
 z4 |: B,,[F,G,D] G,,[F,G,D] | B,,[F,G,D] G,,[F,G,D] | C,[E,G,C] z G,, | C,[G,C] E,[G,C] | %28
 D,[F,A,C] C,[F,A,C] | B,,[F,G,D] G,,[F,G,D] | C, z (!>![C,-^D,^F,]2 | [C,E,G,]) z z2 | %32
 B,,[F,G,D] G,,[F,G,D] | D,[F,G,D] [G,,G,][^G,,^G,] | [A,,A,][E,A,C] [A,,A,][G,,G,] | %35
 [F,,F,][A,CD] [^F,,^F,][F,C^D] |1 [G,CE] z z2 | z [G,,G,][G,,G,][G,,G,] | [C,G,C] z z2 :|2 %39
 [G,CE][G,CE]/[G,CE]/ [G,CE][G,CE] || [G,,G,][G,DF] [G,,G,][G,DF] | !arpeggio![C,G,E] z z2 | %42
 z2 (([G,,G,]2 | [C,C])) z z2 | z !>![G,,G,]!>![G,,G,]!>![G,,G,] | !>![C,C] z [G,,G,]>[E,,E,] | %46
 [C,,C,] z z2 ||[K:F] [F,,F,] z (3[F,A,C][F,A,C][F,A,C] | [F,A,C] z ((!>![C,E,B,C]2 | %49
 [F,,F,])) z (3[F,A,C][F,A,C][F,A,C] | [F,A,C] z !arpeggio![A,,_E,F,C]2 | %51
 [B,,D,F,B,]2 (3[B,,D,F,B,][B,,D,F,B,][B,,D,F,B,] | [B,,D,F,B,]2 [C,E,G,B,]>[^C,E,G,B,] | %53
 [D,F,A,]2 [_D,F,_A,=B,]2 | (3[C,C][D,D][C,C] (3[B,,B,][A,,A,][G,,G,] | %55
 [F,,F,] z (3[F,A,C][F,A,C][F,A,C] | [F,A,C] z ((!>![C,E,B,C]2 | %57
 [F,,F,])) z (3[F,A,C][F,A,C][F,A,C] | [F,A,C] z ((!arpeggio![A,,_E,F,C]2 | %59
 [B,,D,F,B,]2)) (3[B,,D,F,B,][B,,D,F,B,][B,,D,F,B,] | [B,,D,F,B,] z (([C,G,B,]2 | %61
 [F,A,]2)) (3[C,F,][A,,F,][C,F,] | [F,,F,] z z2 || F,[A,C] C,[A,C] | F,[A,C] C,[A,C] | %65
 G,[B,C] C,[B,C] | G,[B,C] C,[B,C] | F,[A,C] A,,[C,F,] | B,,[D,G,] [C,C][B,,B,] | %69
 [A,,A,]2 [G,,G,]2 | [F,,F,]2 z2 | F,[A,C] C,[A,C] | F,[A,C] C,[A,C] | G,[B,C] C,[B,C] | %74
 G,[B,C] C,[B,C] | F,[A,C] A,,[C,F,] | B,,[D,G,] C,[E,B,] | z [A,C]2 [A,C] | [A,C] z z2 || %79
 [A,,A,]>[A,,A,] [G,,G,]>[G,,G,] | [F,,F,]>[E,,E,] (3[D,,D,][C,,C,][B,,,B,,] | [A,,,A,,]2 [DF]2 | %82
 [A,E]2 [DF]2 | [A,E] z [A,,^C,E,A,]>[A,,C,E,A,] | [A,,^C,E,A,] z z2 | %85
 [C,C]>[C,C] [B,,B,]>[B,,B,] | [_A,,_A,]>[G,,G,] (3[F,,F,][_E,,_E,][_D,,_D,] | %87
 [C,,C,]2[K:treble] [F_A]2 | [CG]2 [F_A]2 | [CG] z ([GB]>[^FA] | [=F=A][EG][^D^F][=D=F] | %91
 [CE]) z[K:bass] ([G,B,]>[^F,A,] | [=F,=A,][E,G,][^D,^F,][=D,=F,] | [C,E,]) z z2 | z4 | %95
 F,[A,C] C,[A,C] | F,[A,C] C,[A,C] | G,[B,C] C,[B,C] | G,[B,C] C,[B,C] | F,[A,C] A,,[C,F,] | %100
 B,,[D,G,] [C,C][B,,B,] | [A,,A,]2 [G,,G,]2 | [F,,F,]2"^cres        -                  -" z2 | %103
 [D,,D,][^C,,^C,][D,,D,][E,,E,] | %104
"^-    cen       -                    -                      -    do." [^F,,^F,]2 [D,,D,]2 | %105
 [G,,G,][^F,,^F,][G,,G,][A,,A,] | [B,,B,]2 [=B,,=B,]2 | [C,C]CA,F, | C,[D,F,B,] C,(([E,A,C] | %109
 [F,A,C]))(3=B,,/C,/D,/ C,.A,, | .F,, z z2 |] %111
V:3
 x2 | x4 | x4 | z2!f! [DF^G] z | [DFA]z[DFB] z | x4 |: x4 | x4 | B4- | Bf (3(e/d/^c/d/e/) | x4 | %11
 x4 | G4- | Ge (3(d/c/B/c/e/) | x4 | x4 | x4 | x4 | B2- (3BAG | ^F2- (3FEF |1 x4 | x4 :|2 x4 | %23
 x4 |: x4 | x4 | E4- | E x3 | x4 | x4 | x4 | x4 | x4 | x2 F2 | x4 | x4 |1 x4 | x4 | x4 :|2 x4 || %40
!8va(! x4 | x!8va)! x3 | z2!f! [FGB]2 | [FGc] .G/.G/ .c/.G/.c/.e/ | z [df^g][dfa][dfb] | x4 | x4 || %47
[K:F] x4 | x4 | x4 | x4 | x4 | x4 | x4 | x4 | x4 | x4 | x4 | x4 | x4 | x4 | x4 | x2 F>G || A2 F2 | %64
 C(3F/G/F/ ED | E4- | E2 CD | _E4 | D2 !courtesy!=E2 | z [FA]z[EB] | x2 F>G | A2 F2 | %72
 C(3F/G/F/ ED | E4- | E2 CD | _E4 | D2 !courtesy!=E2 | x4 | x4 || [^ce]7/2 [ce]/ | x4 | x4 | x4 | %83
 x4 | x4 | [eg]7/2 [eg]/ | x4 | x4 | x4 | x4 | x4 | x4 | x4 | x4 | x2 F>G | A2 F2 | C(3F/G/F/ ED | %97
 E4- | E2 CD | (_E4 | D2) !courtesy!=E2 | z [FA]z[EB] | x2 D>E | ^F4 | D^FGc | B>A G2- | G z ^G2 | %107
 A4 | F2 E2 | x4 | x4 |] %111
V:4
 x2 | x4 | x4 | x4 | x4 | x4 |: x4 | x4 | x4 | x4 | x4 | G,[B,D] F,[G,B,D] | E,[G,C] D,[F,G,B,] | %13
 x4 | x4 | E,[G,C] _E,[G,C] | D,4- | D, x3 | x4 | x4 |1 x4 | x4 :|2 x4 | x4 |: x4 | x4 | x4 | x4 | %28
 x4 | x4 | x4 | x4 | x4 | x4 | x4 | x4 |1 x4 | x4 | x4 :|2 x4 || x4 | x4 | x4 | x4 | x4 | x4 | %46
 x4 ||[K:F] x4 | x4 | x4 | x4 | x4 | x4 | x4 | x4 | x4 | x4 | x4 | x4 | x4 | x4 | x4 | x4 || x4 | %64
 x4 | x4 | x4 | x4 | x4 | x4 | x4 | x4 | x4 | x4 | x4 | x4 | x4 | [F,,F,]2 .C,.A,, | F,, z x2 || %79
 x4 | x4 | x4 | x4 | x4 | x4 | x4 | x4 | x2[K:treble] x2 | x4 | x4 | x4 | x2[K:bass] x2 | x4 | x4 | %94
 x4 | x4 | x4 | x4 | x4 | x4 | x4 | x4 | x4 | x4 | x4 | x4 | x4 | x4 | x4 | x4 | x4 |] %111

